public/img/team.svg

<svg width="20" height="21" viewBox="0 0 20 21" fill="none" xmlns="http://www.w3.org/2000/svg">
<path d="M3.17861 4.01004C4.26788 4.01004 5.15091 3.12701 5.15091 2.03774C5.15091 0.948461 4.26788 0.0654297 3.17861 0.0654297C2.08933 0.0654297 1.2063 0.948461 1.2063 2.03774C1.2063 3.12701 2.08933 4.01004 3.17861 4.01004Z" fill="white" fill-opacity="0.5"/>
<path d="M0.978003 10.9207H1.1736V14.8327C1.1736 15.3708 1.61371 15.8107 2.15161 15.8107H4.20541C4.74332 15.8107 5.18342 15.3708 5.18342 14.8327V14.6047C5.00412 14.2622 4.89002 13.8712 4.89002 13.4637V8.34548C4.89002 7.35117 5.49312 6.48727 6.35702 6.11237V5.72117C6.35702 5.18327 5.91692 4.74316 5.37902 4.74316H0.978003C0.440101 4.74316 0 5.18327 0 5.72117V9.94288C0 10.4808 0.423801 10.9207 0.978003 10.9207Z" fill="white" fill-opacity="0.5"/>
<path d="M16.838 4.01004C17.9273 4.01004 18.8103 3.12701 18.8103 2.03774C18.8103 0.948461 17.9273 0.0654297 16.838 0.0654297C15.7488 0.0654297 14.8657 0.948461 14.8657 2.03774C14.8657 3.12701 15.7488 4.01004 16.838 4.01004Z" fill="white" fill-opacity="0.5"/>
<path d="M13.6431 5.70554V6.09674C14.5071 6.47164 15.1101 7.33555 15.1101 8.32985V13.4318C15.1101 13.8393 15.0123 14.2305 14.8168 14.5728V14.801C14.8168 15.3389 15.2568 15.779 15.7948 15.779H17.8486C18.3865 15.779 18.8266 15.3389 18.8266 14.801V10.889H19.0221C19.5601 10.889 20.0001 10.4489 20.0001 9.91096V5.70554C20.0001 5.16764 19.5601 4.72754 19.0221 4.72754H14.6211C14.0833 4.72754 13.6431 5.16748 13.6431 5.70554Z" fill="white" fill-opacity="0.5"/>
<path d="M6.37329 8.346V9.94341V13.4642C6.37329 14.0021 6.81339 14.4422 7.35129 14.4422H7.7262V19.0551C7.7262 19.593 8.1663 20.0331 8.7042 20.0331H11.3285C11.8664 20.0331 12.3065 19.593 12.3065 19.0551V14.4259H12.6814C13.2193 14.4259 13.6594 13.986 13.6594 13.4479V9.94357V8.34617C13.6594 7.80827 13.2193 7.36816 12.6814 7.36816H7.35129C6.79709 7.368 6.37329 7.80827 6.37329 8.346Z" fill="white" fill-opacity="0.5"/>
<path d="M10.0081 6.5529C11.2595 6.5529 12.2738 5.53851 12.2738 4.28719C12.2738 3.03588 11.2595 2.02148 10.0081 2.02148C8.75682 2.02148 7.74243 3.03588 7.74243 4.28719C7.74243 5.53851 8.75682 6.5529 10.0081 6.5529Z" fill="white" fill-opacity="0.5"/>
</svg>

<svg width="20" height="21" fill="none" xmlns="http://www.w3.org/2000/svg"><path d="M3.179 4.01a1.972 1.972 0 1 0 0-3.945 1.972 1.972 0 0 0 0 3.945zM.978 10.92h.196v3.913c0 .538.44.978.978.978h2.053a.98.98 0 0 0 .978-.978v-.228a2.472 2.472 0 0 1-.293-1.141V8.345a2.44 2.44 0 0 1 1.467-2.233v-.39a.98.98 0 0 0-.978-.979H.978A.98.98 0 0 0 0 5.721v4.222a.97.97 0 0 0 .978.978zm15.86-6.91a1.972 1.972 0 1 0 0-3.945 1.972 1.972 0 0 0 0 3.945zm-3.195 1.696v.39A2.44 2.44 0 0 1 15.11 8.33v5.102c0 .407-.098.798-.293 1.14v.229c0 .538.44.978.978.978h2.054a.98.98 0 0 0 .978-.978v-3.912h.195A.98.98 0 0 0 20 9.911V5.706a.98.98 0 0 0-.978-.978h-4.4a.98.98 0 0 0-.979.978zm-7.27 2.64v5.118c0 .538.44.978.978.978h.375v4.613c0 .538.44.978.978.978h2.624a.98.98 0 0 0 .979-.978v-4.63h.374a.98.98 0 0 0 .978-.977V8.346a.98.98 0 0 0-.978-.978h-5.33a.97.97 0 0 0-.978.978zm3.635-1.793a2.266 2.266 0 1 0 0-4.531 2.266 2.266 0 0 0 0 4.53z" fill="#fff" fill-opacity=".5"/></svg>
